X:1
T:Mein eigen soll sie sein
T:Satz von Friedrich Silcher
T:Volkslied
T:Mein eigen soll sie sein
T:(Das Lieben bringt groß' Freud')
T:Creative Commons Attribution Non Commercial 3.0
T:Creative Commons Attribution Non Commercial 3.0
C:Friedrich Silcher
Z:Creative Commons Attribution Non Commercial 3.0
%%score [ ( 1 2 ) ( 3 4 ) ]
L:1/8
Q:1/4=120
M:4/4
K:Bb
V:1 treble-8 nm="Tenor"
V:2 treble-8 
V:3 bass nm="Bass"
V:4 bass 
V:1
"^Einfach und innig" F2 | B3 c d2 eg | f4 z2 Bd | f2 f2 e2 fe | d4 z2!p! Bd | f2 f2 f2 gf | %6
w: ||||||
 fe ed e2 f2 | d2 d2 df ed | cB AB c2 Bc | d4 z2 eg | f4 z2 Bd | f2 f2 e2 fe | d4 z2 |] F2 | %14
w: ||||||||
 B3 c d2 eg | f4 z2 Bd | f2 f2 e2 fe | d4 z2!p! Bd | f2 f2 f2 gf | fe ed e2 fe | d2 d2 dfed | %21
w: |||||* * * * * bis uns||
 cB AB c2 Bc | d4 z2 eg | f4 z2 Bd | f2 f2 e2 fe | d4 z2 |] %26
w: |||||
V:2
 F2 | D3 F B2 ce | d4 x2 B2 | d2 d2 c2 A2 | B4 x2 B2 | d2 d2 d2 ed | dc cB c2 A2 | B2 B2 Bd cB | %8
w: 1.~Das|Lie- ben bringt groß' *|Freud', es|wis- sen's al- le|Leut'; weiß|mir ein schö- nes *|Schät- * ze- * lein, mit|zwei schwarz- brau- * nen *|
w: 2.~Ein|Brief- lein schrieb sie *|mir, ich|soll treu blei- ben|ihr, d'rauf|schick ich ihr ein *|Sträu- * ße- * lein von|Ros- ma- rin * und *|
w: 3.~Mein|ei- gen soll sie *|sein, kein'm|an- dern mehr als|mein. So|le- ben wir in *|Freud' * und * Leid, bis|dass der Tod * uns *|
 AG FG A2 DF | B4 x2 ce | d4 x2 B2 | d2 d2 c2 A2 | B4 x2 |] F2 | D3 F B2 ce | d4 x2 B2 | %16
w: Äu- * ge- * lein, das *|mir, das *|mir, das|mir mein Herz er-|freut.|Mein|ei- gen soll sie *|sein, kein'm|
w: Nä- * ge- * lein, sie *|soll, sie *|soll, sie|soll mein ei- gen|sein.||||
w: bei- * de * scheid', leb *|wohl, leb *|wohl, leb|wohl, mein Schatz, leb|wohl.||||
 d2 d2 c2 A2 | B4 x2 B2 | d2 d2 d2 ed | dc cB c2 Ac | B2 B2 BdcB | AG FG A2 DF | B4 x2 ce | %23
w: an- dern mehr als|mein. So|le- ben wir in *|Freud' * und * Leid, * *|Gott, der Herr, * aus- ein-|an- * der * scheid't, a- *|de, a- *|
w: |||||||
w: |||||||
 d4 x2 B2 | d2 d2 c2 A2 | B4 x2 |] %26
w: de, a-|de mein Schatz, o|weh!|
w: |||
w: |||
V:3
 F,2 | F,3 F, F,B, B,2 | B,4 z2 B,2 | B,2 B,2 A,2 F,2 | F,4 z2!p! B,2 | B,2 B,2 B,2 B,2 | %6
 F,2 A,B, A,2 F,2 | F,2 F,2 F,2 F,2 | F,2 F,2 F,2 z2 | z8 | z4 z2 B,2 | B,2 B,2 A,2 F,2 | F,4 z2 |] %13
 F,2 | F,3 F, F,B, B,2 | B,4 z2 B,2 | B,2 B,2 A,2 F,2 | F,4 z2!p! B,2 | B,2 B,2 B,2 B,2 | %19
 F,2 A,B, A,2 F,F, | F,2 F,2 F,2 F,F, | F,2 F,2 F,2 z2 | z8 | z4 z2 B,2 | B,2 B,2 A,2 F,2 | %25
 F,4 z2 |] %26
V:4
 F,2 | B,,3 A,, B,,2 B,,2 | B,,4 x2 B,2 | B,2 B,,2 F,2 F,,2 | B,,4 x2 B,2 | B,2 B,2 B,2 B,,2 | %6
 F,2 F,2 F,2 F,,2 | B,,2 B,,2 B,,2 B,,2 | F,2 F,2 F,2 x2 | x8 | x4 x2 B,2 | B,2 B,,2 F,2 F,,2 | %12
 B,,4 x2 |] F,2 | B,,3 A,, B,,2 B,,2 | B,,4 x2 B,2 | B,2 B,,2 F,2 F,,2 | B,,4 x2 B,2 | %18
 B,2 B,2 B,2 B,,2 | F,2 F,2 F,2 F,,F,, | B,,2 B,,2 B,,2 B,,B,, | F,2 F,2 F,2 x2 | x8 | x4 x2 B,2 | %24
 B,2 B,,2 F,2 F,,2 | B,,4 x2 |] %26

